X: 31310
T: Paddy Kelly's
R: reel
M: 4/4
K: Amixolydian
A2~A2 eAcA|~G2FG dGB^G|A2~A2 fAeA|GABd gdBG|
EA~A2 EAFA|~G2FG dGB^G|AGEF GABd|1 gdB^G A2 (3EFG:|2 gdB^G A2 (3Bcd||
|:eaa^g a2ea|c’aa^g a=geg|dGBd gfga|bgag edBd|
eaa^g a2ea|c’aa^g a=gef|~g3b aged|1 cAB^G A2 (3Bcd:|2 cAB^G A2 (3EFG||

